<?xml version="1.0" encoding="UTF-8"?>
<map version="1.10" tiledversion="1.12.0" orientation="orthogonal" renderorder="right-down" width="25" height="20" tilewidth="32" tileheight="32" infinite="0" nextlayerid="4" nextobjectid="1">
 <tileset firstgid="1" source="Regnara tiles.tsx"/>
 <layer id="1" name="water" width="25" height="20">
  <data encoding="csv">
7,8,8,8,8,8,8,8,8,8,8,8,8,8,8,8,8,8,8,8,8,8,8,8,9,
20,21,21,21,21,21,21,21,21,21,21,21,21,21,21,21,21,21,21,21,21,21,21,21,22,
20,21,21,21,21,21,21,21,21,21,21,21,21,21,21,21,21,21,21,21,21,21,21,21,22,
20,21,21,21,21,21,21,21,21,21,21,21,21,21,21,21,21,21,21,21,21,21,21,21,22,
20,21,21,21,21,21,21,21,21,21,21,21,21,21,21,21,21,21,21,21,21,21,21,21,22,
20,21,21,21,21,21,21,21,21,21,21,21,21,21,21,21,21,21,21,21,21,21,21,21,22,
20,21,21,21,21,21,21,21,21,21,21,21,21,21,21,21,21,21,21,21,21,21,21,21,22,
20,21,21,21,21,21,21,21,21,21,21,21,21,21,21,21,21,21,21,21,21,21,21,21,22,
20,21,21,21,21,21,21,21,21,21,21,21,21,21,21,21,21,21,21,21,21,21,21,21,22,
20,21,21,21,21,21,21,21,21,21,21,21,21,21,21,21,21,21,21,21,21,21,21,21,22,
20,21,21,21,21,21,21,21,21,21,21,21,21,21,21,21,21,21,21,21,21,21,21,21,22,
20,21,21,21,21,21,21,21,21,21,21,21,21,21,21,21,21,21,21,21,21,21,21,21,22,
20,21,21,21,21,21,21,21,21,21,21,21,21,21,21,21,21,21,21,21,21,21,21,21,22,
20,21,21,21,21,21,21,21,21,21,16,21,21,21,21,21,21,1,21,21,21,21,21,21,22,
20,21,21,21,21,21,21,21,21,21,16,21,21,21,21,21,21,14,21,21,21,21,21,21,22,
20,21,21,21,21,21,21,21,21,21,29,21,21,21,21,21,21,14,21,21,21,21,21,21,22,
20,21,21,21,21,21,21,21,21,21,21,21,21,21,21,21,21,27,80,21,21,21,21,21,22,
20,21,21,21,21,21,21,21,21,21,21,21,21,21,21,21,21,21,21,21,21,21,21,21,22,
20,21,21,21,21,21,21,21,21,21,21,21,21,21,21,21,21,21,21,21,21,21,21,21,22,
33,34,34,34,34,34,34,34,34,34,34,34,34,34,34,34,34,34,34,34,34,34,34,34,35
</data>
 </layer>
 <layer id="2" name="land" width="25" height="20">
  <data encoding="csv">
0,0,0,0,0,40,41,41,3,0,0,0,0,0,0,40,41,41,41,41,41,42,0,0,0,
0,0,1,2,2,93,15,15,92,3,0,0,0,0,0,14,15,15,15,15,15,92,42,0,0,
0,0,27,80,15,15,15,15,15,16,0,0,0,0,0,27,80,15,15,15,15,15,92,42,0,
40,2,2,93,15,15,15,15,15,16,0,0,0,0,0,0,27,80,15,15,15,15,15,92,42,
53,15,15,15,15,15,15,15,15,16,0,0,0,0,0,0,0,53,15,15,15,15,15,15,55,
53,15,15,15,15,15,15,15,15,16,0,0,0,0,0,0,1,93,15,15,15,15,15,15,55,
53,15,15,15,15,15,15,15,15,55,0,0,0,0,0,0,27,80,15,15,15,15,15,15,55,
53,15,15,15,15,15,15,15,15,92,42,0,0,0,0,0,0,27,80,15,15,15,15,15,55,
53,15,15,15,15,15,15,15,15,15,92,3,0,0,0,0,0,0,14,15,15,15,15,15,55,
53,15,15,15,15,15,15,15,15,79,28,29,0,0,0,1,41,41,93,15,15,15,15,15,55,
53,15,15,15,15,15,15,15,15,16,0,0,0,0,0,14,15,15,15,15,15,15,15,15,55,
53,15,15,15,15,15,15,15,15,16,0,0,0,0,0,27,28,28,80,15,15,15,15,15,55,
53,15,15,15,15,15,15,15,15,92,3,0,0,0,0,0,0,0,14,15,15,15,15,15,55,
53,15,15,15,15,15,15,15,15,15,0,0,0,0,0,0,0,0,93,15,15,15,15,15,55,
53,15,15,15,15,15,15,15,15,15,36,5,5,5,5,5,5,39,15,15,15,15,15,15,55,
53,15,15,15,15,15,15,15,15,79,49,31,31,31,31,31,31,52,15,15,15,15,15,15,55,
53,15,15,15,15,15,79,28,28,29,0,0,0,0,0,0,0,0,80,15,15,15,15,15,55,
66,28,28,80,15,15,92,42,0,0,0,0,0,0,0,40,2,2,93,15,15,15,79,67,68,
0,0,0,27,80,15,15,92,41,41,41,3,0,0,40,93,15,15,15,79,67,67,68,0,0,
0,0,0,0,66,67,67,67,67,67,67,68,0,0,66,67,67,67,67,68,0,0,0,0,0
</data>
 </layer>
 <layer id="3" name="grass" width="25" height="20">
  <data encoding="csv">
0,0,0,0,0,105,106,106,107,0,0,0,0,0,0,105,106,106,106,106,106,107,0,0,0,
0,0,105,106,106,137,119,119,136,107,0,0,0,0,0,118,119,119,119,119,119,136,107,0,0,
0,0,131,124,119,119,119,119,119,120,0,0,0,0,0,131,124,119,119,119,119,119,136,107,0,
105,106,106,137,119,119,119,119,119,120,0,0,0,0,0,0,131,124,119,119,119,119,119,136,107,
118,119,119,119,119,119,119,119,119,120,0,0,0,0,0,0,0,118,119,119,119,119,119,119,120,
118,119,119,119,119,119,119,119,119,120,0,0,0,0,0,0,105,137,119,119,119,119,119,119,120,
118,119,119,119,119,119,119,119,119,120,0,0,0,0,0,0,131,124,119,119,119,119,119,119,120,
118,119,119,119,119,119,119,119,119,136,107,0,0,0,0,0,0,131,124,119,119,119,119,119,120,
118,119,119,119,119,119,119,119,119,119,136,107,0,0,0,0,0,0,118,119,119,119,119,119,120,
118,119,119,119,119,119,119,119,119,123,132,133,0,0,0,105,106,106,137,119,119,119,119,119,120,
118,119,119,119,119,119,119,119,119,120,0,0,0,0,0,118,119,119,119,119,119,119,119,119,120,
118,119,119,119,119,119,119,119,119,120,0,0,0,0,0,131,132,132,124,119,119,119,119,119,120,
118,119,119,119,119,119,119,119,119,136,107,0,0,0,0,0,0,0,118,119,119,119,119,119,120,
118,119,119,119,119,119,119,119,119,119,120,0,0,0,0,0,0,105,137,119,119,119,119,119,120,
118,119,119,119,119,119,119,119,119,119,120,0,0,0,0,0,0,118,119,119,119,119,119,119,120,
118,119,119,119,119,119,119,119,119,123,133,0,0,0,0,0,0,118,119,119,119,119,119,119,120,
118,119,119,119,119,119,123,0,0,0,0,0,0,0,0,0,0,131,124,119,119,119,119,119,120,
131,132,132,124,119,119,136,107,0,0,0,0,0,0,0,105,106,106,137,119,119,119,123,132,133,
0,0,0,131,124,119,119,136,106,106,106,107,0,0,105,137,119,119,119,123,132,132,133,0,0,
0,0,0,0,131,132,132,132,132,132,132,133,0,0,131,132,132,132,132,133,0,0,0,0,0
</data>
 </layer>
</map>
